X:1
T:[ID 2-130]
T:[ID 2-130]
T:Bezeichnung standardisiert: Menuet [mit Trio] Men\"uet Con Trio 5.
T:Urheber unbekannt Datum in der hier transkribierten schriftlichen Quelle: 1767
C:Urheber unbekannt
C:Datum in der hier transkribierten schriftlichen Quelle: 1767
L:1/8
M:3/4
K:D
V:1 treble 
V:1
 d4 D2 | f4 D2 | a2 b2 c2 | (3dcB A4 | Bd Td4 | Ad Td4 | ef g2 f2 |{f} e6 :: ea Ta4 | ea Ta4 | %10
 df Tf4 | df Tf4 | Ad Td4 | Ad Td4 | (3efg f2 d2 | d6 :|[M:3/4]"^Trio" !fermata!f2 fefg | f2 fefg | %18
 a2 bagf | f2 e4 | f2 fefg | f2 fefg | a2 bagf | f2 e4 ::"^O)" g3 (a/b/) (3efg | g2 f2 e2 | %26
"^O)" g3 (a/b/) (3efg | g2 f2 e2 |!f! d3 e/f/ A2 |!p! B2 g2{g} f2 | d3 (e/f/) A2 | B2 g2{g} f2 | %32
{g} f2 edec | d6 :| %34

